Papirus/22x22/panel/mullvadg.svg

<?xml version="1.0" encoding="UTF-8" standalone="no"?>
<svg xmlns:dc="http://purl.org/dc/elements/1.1/" xmlns:cc="http://creativecommons.org/ns#" xmlns:rdf="http://www.w3.org/1999/02/22-rdf-syntax-ns#" xmlns:svg="http://www.w3.org/2000/svg" xmlns="http://www.w3.org/2000/svg" width="22" height="22" viewBox="0 0 22 22" id="svg4437" version="1.1">
    <metadata id="metadata4442">
        <rdf:RDF>
            <cc:Work rdf:about="">
                <dc:format>
                    image/svg+xml
                </dc:format>
                <dc:type rdf:resource="http://purl.org/dc/dcmitype/StillImage"/>
                <dc:title/>
            </cc:Work>
        </rdf:RDF>
    </metadata>
    <path id="path4150" d="M 9 3 A 8 8 0 0 0 1 11 A 8 8 0 0 0 9 19 A 8 8 0 0 0 13.025391 17.904297 L 12.292969 17.171875 A 1.0001 1.0001 0 0 1 12.292969 15.757812 L 13.707031 14.34375 A 1.0001 1.0001 0 0 1 15.121094 14.34375 L 15.865234 15.087891 A 8 8 0 0 0 17 11 A 8 8 0 0 0 9 3 z M 7 6 C 7.6025795 6 8.262517 6.065035 8.828125 6.25 C 9.110929 6.342482 9.3746095 6.4629971 9.5976562 6.6582031 C 9.6882934 6.7375261 9.6945036 6.889048 9.7617188 7 L 10.5 7 A 0.50005 0.50005 0 0 1 11 7.5 L 11 8 C 11.201709 8.0034 11.317441 8.01032 12.201172 8 C 12.576577 7.9956 12.807064 7.9985 13.087891 8 A 1.5 1.5 0 0 1 14.5 7 A 1.5 1.5 0 0 1 16 8.5 A 1.5 1.5 0 0 1 14.5 10 A 1.5 1.5 0 0 1 14.339844 9.9902344 C 13.64458 10.853744 12.699104 11.547515 11.994141 12.21875 L 12 12.488281 A 0.50005 0.50005 0 0 1 11.494141 13 C 11.046686 12.995 10.993349 13.091573 11.009766 13.064453 C 11.026186 13.037333 10.992851 13.151703 11.087891 13.40625 C 11.182911 13.660795 11.362538 13.993918 11.541016 14.333984 C 11.719492 14.674051 11.900308 15.015327 11.986328 15.386719 A 0.50005 0.50005 0 0 1 11.5 16 L 8.5 16 A 0.50005 0.50005 0 0 1 8.4960938 16 C 7.1703567 15.9916 4.5019531 16 4.5019531 16 A 0.50005 0.50005 0 0 1 4.1035156 15.195312 C 4.3799336 14.834945 4.6386162 14.152965 4.8203125 13.441406 C 4.950895 12.930021 5.0423856 12.431548 5.1191406 11.980469 C 5.0491626 11.967309 4.9781476 11.94707 4.9003906 11.90625 C 4.7377991 11.8209 4.5612466 11.565089 4.5722656 11.34375 C 4.5796056 11.195884 4.5962925 11.203227 4.6015625 11.183594 C 4.6068325 11.163964 4.608245 11.154014 4.609375 11.146484 L 4.609375 11.144531 C 4.1903522 10.558545 4 9.782717 4 9.09375 C 4 8.216324 4.4156404 7.445368 4.9804688 6.8984375 C 5.5452965 6.3515072 6.2655964 6 7 6 z M 7 7 C 6.6082157 7 6.0794062 7.2263515 5.6757812 7.6171875 C 5.2721563 8.0080225 5 8.535235 5 9.09375 C 5 9.594699 5.2256771 10.342244 5.4648438 10.638672 A 0.50005 0.50005 0 0 1 5.5429688 10.771484 C 5.5697177 10.840034 5.552009 10.886514 5.5625 10.951172 C 5.6990714 10.932442 5.8309796 10.919532 6.1191406 10.828125 C 6.4608317 10.693139 6.7622809 10.543367 7.0449219 10.386719 C 7.1410869 10.333439 7.2342898 10.269551 7.3300781 10.210938 C 7.5396408 10.079287 7.7412967 9.943863 7.9160156 9.796875 C 8.2369592 9.506818 8.5008629 9.1493996 8.7792969 8.8007812 C 8.8757469 8.6412693 8.9655175 8.4783255 9.0390625 8.3046875 A 0.50005 0.50005 0 0 1 9.5 8 A 0.50005 0.50005 0 0 1 9 7.5 C 9 7.47285 9.0072 7.4711862 8.9375 7.4101562 C 8.86777 7.3491262 8.7190001 7.2670409 8.5175781 7.2011719 C 8.1147341 7.0694339 7.5236084 7 7 7 z M 10.583984 9 A 0.50005 0.50005 0 0 1 10.496094 9.0078125 L 9.984375 9.0039062 C 9.897995 9.0556966 9.7896476 9.144695 9.6503906 9.3125 C 9.3379996 9.688931 8.9508766 10.319661 8.2753906 10.800781 C 7.6443937 11.250213 7.1189825 11.488862 6.7050781 11.654297 C 6.6250781 11.688687 6.5593031 11.733067 6.4765625 11.765625 A 0.50005 0.50005 0 0 1 6.4472656 11.775391 C 6.3808086 11.796851 6.3347455 11.804016 6.2734375 11.822266 C 6.2444655 11.832266 6.1653024 11.865827 6.1445312 11.873047 C 6.0615913 12.383757 5.9620197 13.01209 5.7890625 13.689453 C 5.6671582 14.166805 5.4333954 14.569318 5.2363281 15 C 5.9273481 14.9982 7.4122091 14.9931 8.5039062 15 L 10.744141 15 C 10.706181 14.92292 10.6988 14.879908 10.65625 14.798828 C 10.483837 14.470315 10.287424 14.117698 10.152344 13.755859 C 10.017257 13.39402 9.9019503 12.963607 10.154297 12.546875 C 10.310731 12.288438 10.680393 12.282531 10.992188 12.207031 L 10.988281 12.011719 A 0.50005 0.50005 0 0 1 11.134766 11.646484 C 11.896572 10.882035 12.751201 10.169137 13.357422 9.46875 A 1.5 1.5 0 0 1 13.087891 9 C 12.808467 8.9985 12.568213 8.9959 12.212891 9 C 11.034238 9.01376 10.634812 9.0014 10.583984 9 z M 20.070312 13.636719 L 16.535156 17.171875 L 14.414062 15.050781 L 13 16.464844 L 15.121094 18.585938 L 16.535156 20 L 17.949219 18.585938 L 21.484375 15.050781 L 20.070312 13.636719 z " style="opacity:1;fill:#ffffff;fill-opacity:1;stroke:none;stroke-width:2;stroke-linecap:round;stroke-linejoin:round;stroke-miterlimit:4;stroke-dasharray:none;stroke-opacity:1"/>
</svg>

<?xml version="1.0" encoding="UTF-8" standalone="no"?>
<svg id="svg4437" xmlns:rdf="http://www.w3.org/1999/02/22-rdf-syntax-ns#" xmlns="http://www.w3.org/2000/svg" height="22" width="22" version="1.1" xmlns:cc="http://creativecommons.org/ns#" viewBox="0 0 22 22" xmlns:dc="http://purl.org/dc/elements/1.1/">
 <metadata id="metadata4442">
  <rdf:RDF>
   <cc:Work rdf:about="">
    <dc:format>image/svg+xml</dc:format>
    <dc:type rdf:resource="http://purl.org/dc/dcmitype/StillImage"/>
    <dc:title/>
   </cc:Work>
  </rdf:RDF>
 </metadata>
 <path id="path4150" d="m9 3a8 8 0 0 0 -8 8 8 8 0 0 0 8 8 8 8 0 0 0 4.025 -1.096l-0.732-0.732a1.0001 1.0001 0 0 1 0 -1.414l1.414-1.414a1.0001 1.0001 0 0 1 1.414 0l0.744 0.744a8 8 0 0 0 1.135 -4.088 8 8 0 0 0 -8 -8zm-2 3c0.6026 0 1.2625 0.065 1.8281 0.25 0.2828 0.0925 0.5465 0.213 0.7696 0.4082 0.0906 0.0793 0.0968 0.2308 0.164 0.3418h0.7383a0.50005 0.50005 0 0 1 0.5 0.5v0.5c0.202 0.0034 0.317 0.0103 1.201 0 0.376-0.0044 0.606-0.0015 0.887 0a1.5 1.5 0 0 1 1.412 -1 1.5 1.5 0 0 1 1.5 1.5 1.5 1.5 0 0 1 -1.5 1.5 1.5 1.5 0 0 1 -0.16 -0.0098c-0.695 0.8638-1.641 1.5578-2.346 2.2288l0.006 0.269a0.50005 0.50005 0 0 1 -0.506 0.512c-0.447-0.005-0.501 0.092-0.484 0.064 0.016-0.027-0.017 0.088 0.078 0.342 0.095 0.255 0.275 0.588 0.453 0.928s0.359 0.681 0.445 1.053a0.50005 0.50005 0 0 1 -0.486 0.613h-3a0.50005 0.50005 0 0 1 -0.0039 0c-1.3257-0.008-3.9941 0-3.9941 0a0.50005 0.50005 0 0 1 -0.3985 -0.805c0.2764-0.36 0.5351-1.042 0.7168-1.754 0.1306-0.511 0.2221-1.009 0.2988-1.461-0.0699-0.013-0.141-0.033-0.2187-0.074-0.1626-0.085-0.3392-0.341-0.3281-0.562 0.0073-0.148 0.024-0.141 0.0293-0.16 0.0052-0.02 0.0066-0.03 0.0078-0.038v-0.001c-0.419-0.586-0.6094-1.3623-0.6094-2.0512 0-0.8775 0.4156-1.6484 0.9805-2.1954 0.5648-0.5469 1.2851-0.8984 2.0195-0.8984zm0 1c-0.3918 0-0.9206 0.2264-1.3242 0.6172s-0.6758 0.918-0.6758 1.4766c0 0.5009 0.2257 1.2482 0.4648 1.5452a0.50005 0.50005 0 0 1 0.0782 0.132c0.0267 0.069 0.009 0.116 0.0195 0.18 0.1366-0.019 0.2685-0.031 0.5566-0.123 0.3417-0.135 0.6432-0.285 0.9258-0.441 0.0962-0.054 0.1894-0.117 0.2852-0.176 0.2095-0.132 0.4112-0.2671 0.5859-0.4141 0.321-0.2901 0.5849-0.6475 0.8633-0.9961 0.0964-0.1595 0.1862-0.3225 0.2598-0.4961a0.50005 0.50005 0 0 1 0.4609 -0.3047 0.50005 0.50005 0 0 1 -0.5 -0.5c0-0.0272 0.0072-0.0288-0.0625-0.0898-0.0697-0.0611-0.2185-0.1432-0.4199-0.209-0.4029-0.1318-0.994-0.2012-1.5176-0.2012zm3.584 2a0.50005 0.50005 0 0 1 -0.088 0.0078l-0.5116-0.0039c-0.0864 0.0518-0.1948 0.1408-0.334 0.3086-0.3124 0.3764-0.6995 1.0075-1.375 1.4885-0.631 0.449-1.1564 0.688-1.5703 0.853-0.08 0.035-0.1458 0.079-0.2285 0.112a0.50005 0.50005 0 0 1 -0.0293 0.009c-0.0665 0.022-0.1126 0.029-0.1739 0.047-0.0289 0.01-0.1081 0.044-0.1289 0.051-0.0829 0.511-0.1825 1.139-0.3554 1.816-0.1219 0.478-0.3557 0.88-0.5528 1.311 0.691-0.002 2.1759-0.007 3.2676 0h2.2401c-0.038-0.077-0.045-0.12-0.088-0.201-0.172-0.329-0.369-0.681-0.504-1.043s-0.25-0.792 0.002-1.209c0.157-0.259 0.526-0.264 0.838-0.34l-0.004-0.195a0.50005 0.50005 0 0 1 0.147 -0.366c0.762-0.764 1.616-1.477 2.222-2.1772a1.5 1.5 0 0 1 -0.269 -0.4688c-0.28-0.0015-0.52-0.0041-0.875 0-1.179 0.0138-1.578 0.0014-1.629 0zm9.486 4.637l-3.535 3.535-2.121-2.121-1.414 1.414 2.121 2.121 1.414 1.414 1.414-1.414 3.535-3.535-1.414-1.414z" fill="#fff"/>
</svg>
